svg/device/radio_fill.svg

<?xml version="1.0" encoding="UTF-8"?>
<svg width="24px" height="24px" viewBox="0 0 24 24" version="1.1" xmlns="http://www.w3.org/2000/svg" xmlns:xlink="http://www.w3.org/1999/xlink">
    <title>radio_fill</title>
    <g id="页面-1" stroke="none" stroke-width="1" fill="none" fill-rule="evenodd">
        <g id="Device" transform="translate(-624.000000, -48.000000)" fill-rule="nonzero">
            <g id="radio_fill" transform="translate(624.000000, 48.000000)">
                 <path d="M24,0 L24,24 L0,24 L0,0 L24,0 Z M12.5934901,23.257841 L12.5819402,23.2595131 L12.5108777,23.2950439 L12.4918791,23.2987469 L12.4918791,23.2987469 L12.4767152,23.2950439 L12.4056548,23.2595131 C12.3958229,23.2563662 12.3870493,23.2590235 12.3821421,23.2649074 L12.3780323,23.275831 L12.360941,23.7031097 L12.3658947,23.7234994 L12.3769048,23.7357139 L12.4804777,23.8096931 L12.4953491,23.8136134 L12.4953491,23.8136134 L12.5071152,23.8096931 L12.6106902,23.7357139 L12.6232938,23.7196733 L12.6232938,23.7196733 L12.6266527,23.7031097 L12.609561,23.275831 C12.6075724,23.2657013 12.6010112,23.2592993 12.5934901,23.257841 L12.5934901,23.257841 Z M12.8583906,23.1452862 L12.8445485,23.1473072 L12.6598443,23.2396597 L12.6498822,23.2499052 L12.6498822,23.2499052 L12.6471943,23.2611114 L12.6650943,23.6906389 L12.6699349,23.7034178 L12.6699349,23.7034178 L12.678386,23.7104931 L12.8793402,23.8032389 C12.8914285,23.8068999 12.9022333,23.8029875 12.9078286,23.7952264 L12.9118235,23.7811639 L12.8776777,23.1665331 C12.8752882,23.1545897 12.8674102,23.1470016 12.8583906,23.1452862 L12.8583906,23.1452862 Z M12.1430473,23.1473072 C12.1332178,23.1423925 12.1221763,23.1452606 12.1156365,23.1525954 L12.1099173,23.1665331 L12.0757714,23.7811639 C12.0751323,23.7926639 12.0828099,23.8018602 12.0926481,23.8045676 L12.108256,23.8032389 L12.3092106,23.7104931 L12.3186497,23.7024347 L12.3186497,23.7024347 L12.3225043,23.6906389 L12.340401,23.2611114 L12.337245,23.2485176 L12.337245,23.2485176 L12.3277531,23.2396597 L12.1430473,23.1473072 Z" id="MingCute" fill-rule="nonzero"></path>
                <path d="M8.70385,3.012 L19.6606,6.99993 L20,6.99993 C21.1046,6.99993 22,7.89536 22,8.99993 L22,18.9999 C22,20.1045 21.1046,20.9999 20,20.9999 L4,20.9999 C2.89543,20.9999 2,20.1045 2,18.9999 L2,8.99993 C2,7.89536 2.89543,6.99993 4,6.99993 L13.813,6.99993 L8.01981,4.89138 C7.50083,4.70249 7.23325,4.12865 7.42214,3.60967 C7.61103,3.09069 8.18488,2.8231 8.70385,3.012 Z M15,10.9999 C13.3431,10.9999 12,12.3431 12,13.9999 C12,15.6568 13.3431,16.9999 15,16.9999 C16.6569,16.9999 18,15.6568 18,13.9999 C18,12.3431 16.6569,10.9999 15,10.9999 Z M10,14.9999 L7,14.9999 C6.44772,14.9999 6,15.4477 6,15.9999 C6,16.5522 6.44772,16.9999 7,16.9999 L10,16.9999 C10.5523,16.9999 11,16.5522 11,15.9999 C11,15.4477 10.5523,14.9999 10,14.9999 Z M15,12.9999 C15.5523,12.9999 16,13.4477 16,13.9999 C16,14.5522 15.5523,14.9999 15,14.9999 C14.4477,14.9999 14,14.5522 14,13.9999 C14,13.4477 14.4477,12.9999 15,12.9999 Z M8,11.9999 L7,11.9999 C6.44772,11.9999 6,12.4477 6,12.9999 C6,13.5522 6.44772,13.9999 7,13.9999 L8,13.9999 C8.55228,13.9999 9,13.5522 9,12.9999 C9,12.4477 8.55228,11.9999 8,11.9999 Z" id="形状" fill="#09244B"></path>
            </g>
        </g>
    </g>
</svg>

<svg xmlns="http://www.w3.org/2000/svg" width="24" height="24"><g fill="none" fill-rule="nonzero"><path d="M24 0v24H0V0h24ZM12.593 23.258l-.011.002-.071.035-.02.004-.014-.004-.071-.035c-.01-.004-.019-.001-.024.005l-.004.01-.017.428.005.02.01.013.104.074.015.004.012-.004.104-.074.012-.016.004-.017-.017-.427c-.002-.01-.009-.017-.017-.018Zm.265-.113-.013.002-.185.093-.01.01-.003.011.018.43.005.012.008.007.201.093c.012.004.023 0 .029-.008l.004-.014-.034-.614c-.003-.012-.01-.02-.02-.022Zm-.715.002a.023.023 0 0 0-.027.006l-.006.014-.034.614c0 .012.007.02.017.024l.015-.002.201-.093.01-.008.004-.011.017-.43-.003-.012-.01-.01-.184-.092Z"/><path fill="#09244B" d="M8.704 3.012 19.66 7H20a2 2 0 0 1 2 2v10a2 2 0 0 1-2 2H4a2 2 0 0 1-2-2V9a2 2 0 0 1 2-2h9.813L8.02 4.89a1 1 0 1 1 .684-1.879ZM15 11a3 3 0 1 0 0 6 3 3 0 0 0 0-6Zm-5 4H7a1 1 0 0 0 0 2h3a1 1 0 1 0 0-2Zm5-2a1 1 0 1 1 0 2 1 1 0 0 1 0-2Zm-7-1H7a1 1 0 0 0 0 2h1a1 1 0 1 0 0-2Z"/></g></svg>
